X: 30103
T: Old 57
R: waltz
M: 3/4
K: Dmajor
FE|:D3 E FD|F2 A2 A2|d3 f ed|e2 f2 fe|
dB- B2 BA|B2 d2 dB|A3 F FD|E3 G FE|
D3 E FD|F2 A2 A2|d3 f ed|e2 f2 fe|
dB- B2 BA|B2 d2 dB|A3 F FE|1 D3 D FE:|2 D3 D D2||
|:e3 f ed|B/d/B A2 d2|f3 g fe|
d4 A2|B3 c d2|A3 G F2|G2 F2 E2|1 E6:|2 E3 G FE||

